assets/features/SecurePaymentSolutions/iso-27001.svg

<svg width="52" height="52" viewBox="0 0 52 52" fill="none" xmlns="http://www.w3.org/2000/svg">
<rect width="52" height="52" rx="8" fill="#0063AD"/>
<path d="M25.9406 7.22266C36.2688 7.2325 44.6329 15.6476 44.6231 26.0185C44.6132 36.3894 36.2328 44.788 25.9046 44.7782C15.5895 44.7684 7.2298 36.373 7.22218 26.0141C7.21237 15.6454 15.5743 7.2325 25.9003 7.22266C25.9134 7.22266 25.9264 7.22266 25.9406 7.22266ZM19.6539 35.6423C23.7085 34.1951 28.1367 34.194 32.1924 35.6401L32.7752 33.4381C33.0443 33.4381 33.2905 33.4316 33.5388 33.4403C33.7948 33.4195 34.0519 33.4338 34.3036 33.4852C34.1282 34.3986 33.9071 35.3032 33.6391 36.1936C34.3297 36.5764 35.016 36.9232 35.6685 37.3257C36.3211 37.7272 36.9387 38.18 37.5695 38.6099C45.1514 31.6333 44.6786 19.7671 37.5401 13.3745C36.3352 14.3262 35.0226 15.1324 33.6293 15.7745C33.894 16.7163 34.1467 17.6187 34.3134 18.5496H32.761C32.6663 18.1744 32.5802 17.8156 32.4854 17.4601C32.4037 17.0882 32.2959 16.7239 32.1608 16.3684C28.1149 17.808 23.6987 17.8058 19.6539 16.3619L19.0689 18.5704C18.7999 18.5704 18.5515 18.5715 18.3042 18.5704C18.0515 18.5682 17.7987 18.5638 17.4981 18.5594L18.2029 15.7668C16.8129 15.1269 15.5046 14.3229 14.3052 13.3691C6.77118 20.268 7.08819 32.1332 14.3052 38.6252C15.5133 37.6725 16.8281 36.8652 18.2225 36.2209C17.9425 35.3097 17.7105 34.3832 17.5286 33.448H19.0766L19.6539 35.6423ZM31.6553 14.9027C31.6466 14.8414 31.6336 14.7812 31.6172 14.7211C31.1423 13.4358 30.4908 12.2238 29.6836 11.119C29.164 10.3938 28.5082 9.77682 27.7533 9.30318C26.6999 8.61733 25.3545 8.58014 24.2652 9.20692C23.5647 9.6018 22.947 10.129 22.447 10.7602C21.6431 11.7578 20.9884 12.8681 20.5014 14.0549C20.387 14.3207 20.2825 14.5909 20.1605 14.8906C23.8763 16.2295 27.9385 16.2339 31.6553 14.9027ZM20.179 37.0982C20.2051 37.1879 20.216 37.2404 20.2345 37.2885C20.6779 38.4808 21.2705 39.6108 21.9982 40.6532C22.4743 41.3413 23.0571 41.9495 23.7248 42.4526C25.1268 43.4798 26.6476 43.4929 28.0637 42.492C28.5485 42.1442 28.9864 41.734 29.3666 41.2735C30.334 40.0713 31.0965 38.716 31.6227 37.2634C31.6379 37.2076 31.6477 37.1507 31.6532 37.0938C27.9417 35.7681 23.8893 35.7703 20.179 37.0982ZM30.2969 42.6222C32.4942 42.0665 34.5541 41.0613 36.345 39.6677C35.3613 38.8998 34.2938 38.2468 33.1641 37.7206C32.7349 38.599 32.3406 39.4555 31.9026 40.289C31.4506 41.1203 30.9124 41.9024 30.2969 42.6222ZM21.5657 42.6288C20.9448 41.9178 20.4034 41.1389 19.9524 40.3076C19.5058 39.4675 19.1125 38.6001 18.6833 37.7195C17.5525 38.2468 16.4839 38.8998 15.5002 39.6677C17.2976 41.0624 19.362 42.0709 21.5657 42.6288ZM33.1075 14.2737C33.9343 13.9937 36.0084 12.7029 36.2971 12.2916C34.5138 10.9133 32.4669 9.91902 30.2839 9.36991C31.5442 10.8193 32.4081 12.4874 33.1075 14.2737ZM21.5352 9.38194C19.35 9.93324 17.3009 10.933 15.5176 12.3168C16.1582 12.9151 18.1408 14.1096 18.7465 14.2606C19.3957 12.4885 20.338 10.839 21.5352 9.38194Z" fill="white"/>
<path d="M40.428 26.0167C40.4378 26.8907 40.2439 27.7559 39.8638 28.5413C39.3757 29.5007 38.5554 30.2478 37.5565 30.6416C36.831 30.9303 36.0619 31.0911 35.2819 31.1196C34.3734 31.1918 33.4594 31.0922 32.5879 30.8275C30.7023 30.2204 29.5726 28.9439 29.285 26.9552C29.1423 26.0495 29.2 25.1241 29.4539 24.2436C29.8362 22.9003 30.8308 21.8207 32.1348 21.3317C33.2524 20.9051 34.4573 20.7563 35.6447 20.8996C36.3266 20.9456 36.9955 21.1085 37.6229 21.3798C39.1099 21.9957 40.1481 23.3739 40.3333 24.9786C40.3834 25.3221 40.3975 25.671 40.428 26.0167ZM36.7242 26.0167C36.6937 25.5518 36.6785 25.0836 36.6273 24.6209C36.5891 24.0992 36.4486 23.5916 36.2133 23.1245C35.953 22.605 35.4148 22.2844 34.8364 22.3052C34.247 22.2757 33.6936 22.594 33.4213 23.1202C33.2296 23.4866 33.1054 23.8837 33.0531 24.2939C32.9006 25.3046 32.8821 26.3306 32.9986 27.3457C33.0346 27.8117 33.1457 28.2701 33.3276 28.6999C33.6784 29.5236 34.6294 29.9065 35.4497 29.5543C35.8103 29.3989 36.1022 29.1178 36.2721 28.7634C36.3724 28.5468 36.4508 28.3215 36.5042 28.0885C36.6512 27.407 36.7242 26.7135 36.7242 26.0167Z" fill="white"/>
<path d="M26.2827 24.4386C26.2184 24.2603 26.1694 24.117 26.1171 23.9748C25.7619 23.0165 25.0473 22.5287 24.0604 22.4226C23.6845 22.3646 23.3 22.3854 22.9329 22.4838C22.6921 22.5538 22.4754 22.6873 22.3043 22.8721C21.9525 23.2627 21.9906 23.7024 22.4372 23.9759C22.6976 24.1301 22.9786 24.2471 23.2706 24.3237C23.885 24.4932 24.5135 24.6158 25.1301 24.782C25.8469 24.956 26.531 25.2425 27.1585 25.632C27.8328 26.0531 28.2653 26.7739 28.3198 27.5692C28.4341 28.3765 28.2086 29.1947 27.6966 29.828C27.3077 30.2863 26.8023 30.6298 26.2336 30.8212C25.4733 31.0783 24.6682 31.1811 23.8676 31.1231C22.9253 31.0717 22.0026 30.8322 21.1529 30.4187C21.1158 30.4012 21.0744 30.3903 21.0113 30.3684L20.6496 30.8792H19.3729V27.334C19.5929 27.3001 19.8173 27.2913 20.0396 27.3067C20.2552 27.3012 20.4709 27.3056 20.7139 27.3056C20.7585 27.4226 20.7977 27.532 20.8424 27.6392C21.2869 28.7024 22.0331 29.4145 23.1845 29.6366C23.5669 29.7252 23.9645 29.7164 24.3425 29.6114C24.5495 29.5502 24.7423 29.4517 24.9133 29.3194C25.2434 29.0831 25.3208 28.6226 25.0865 28.2911C25.0386 28.2233 24.9798 28.1642 24.9122 28.1161C24.6345 27.9105 24.3262 27.7486 23.9994 27.637C23.3665 27.416 22.7139 27.2542 22.0756 27.0496C21.63 26.9151 21.1921 26.7564 20.764 26.5749C19.9502 26.2117 19.3544 25.621 19.1735 24.723C18.8848 23.2889 19.4851 22.0419 20.7945 21.3484C21.3555 21.0607 21.9732 20.8999 22.6017 20.8748C23.7946 20.7862 24.9918 21.0038 26.0779 21.507C26.1171 21.5256 26.1585 21.5387 26.2293 21.5661L26.494 21.122H27.8383V24.4309C27.5888 24.4331 27.3339 24.4375 27.0801 24.4386C26.8186 24.4396 26.5594 24.4386 26.2827 24.4386Z" fill="white"/>
<path d="M18.2312 29.4877V30.8211H12.5524V29.4877C12.7278 29.4877 12.8988 29.491 13.0676 29.4866C13.1864 29.4866 13.3051 29.4768 13.4228 29.4571C13.6025 29.4396 13.7463 29.2974 13.767 29.1169C13.7931 28.978 13.8106 28.838 13.8171 28.698C13.8204 26.8931 13.8204 25.0871 13.8171 23.2822C13.816 22.6434 13.6646 22.4979 13.0284 22.487C12.8781 22.4848 12.7267 22.487 12.5524 22.487V21.1602H18.192C18.266 21.5911 18.2726 22.032 18.2105 22.4651C18.1321 22.4728 18.0493 22.4826 17.9654 22.4881C17.8815 22.4936 17.7922 22.4881 17.705 22.4903C17.1255 22.5111 16.9882 22.6358 16.9882 23.2101C16.9828 25.0587 16.9828 26.9073 16.9882 28.7559C16.9904 29.3488 17.1288 29.4768 17.7225 29.4877C17.8837 29.4899 18.0438 29.4877 18.2312 29.4877Z" fill="white"/>
</svg>

<svg xmlns="http://www.w3.org/2000/svg" width="52" height="52" fill="none" viewBox="0 0 52 52"><rect width="52" height="52" fill="#0063ad" rx="8"/><path fill="#fff" d="M25.94 7.223c10.329.01 18.693 8.425 18.683 18.795s-8.39 18.77-18.718 18.76c-10.316-.01-18.675-8.405-18.683-18.764C7.212 15.645 15.574 7.233 25.9 7.223zm-6.286 28.42a18.66 18.66 0 0 1 12.538-.003l.583-2.202c.27 0 .516-.006.764.002q.385-.03.765.045a27 27 0 0 1-.665 2.709c.69.382 1.377.73 2.03 1.132s1.27.854 1.9 1.284c7.582-6.977 7.11-18.843-.029-25.235a19.4 19.4 0 0 1-3.91 2.4c.264.941.517 1.844.683 2.775h-1.552c-.095-.376-.18-.734-.276-1.09a8 8 0 0 0-.324-1.092 18.62 18.62 0 0 1-12.507-.006l-.585 2.208c-.27 0-.517.002-.765 0-.252-.002-.505-.006-.806-.01l.705-2.793a19 19 0 0 1-3.898-2.398c-7.534 6.899-7.217 18.764 0 25.256a19.6 19.6 0 0 1 3.918-2.404 27 27 0 0 1-.694-2.773h1.548zm12.001-20.74a2 2 0 0 0-.038-.182 14.8 14.8 0 0 0-1.933-3.602 6.9 6.9 0 0 0-1.93-1.816 3.34 3.34 0 0 0-3.489-.096c-.7.395-1.318.922-1.818 1.553a13.3 13.3 0 0 0-1.946 3.295c-.114.266-.219.536-.34.836a17 17 0 0 0 11.494.012M20.18 37.098c.026.09.037.142.056.19a15 15 0 0 0 1.763 3.365 7.8 7.8 0 0 0 1.727 1.8c1.402 1.027 2.923 1.04 4.339.039a7 7 0 0 0 1.303-1.218 14 14 0 0 0 2.256-4.01q.023-.084.03-.17a17.04 17.04 0 0 0-11.474.004m10.118 5.524a16.4 16.4 0 0 0 6.048-2.954 16.5 16.5 0 0 0-3.18-1.947c-.43.878-.824 1.735-1.262 2.568a13.6 13.6 0 0 1-1.606 2.333m-8.731.007a12.8 12.8 0 0 1-1.614-2.321c-.446-.84-.84-1.708-1.269-2.589-1.13.528-2.2 1.18-3.183 1.949a16.5 16.5 0 0 0 6.066 2.96m11.542-28.355c.826-.28 2.9-1.571 3.19-1.982a16.4 16.4 0 0 0-6.014-2.922c1.26 1.45 2.124 3.117 2.824 4.904M21.535 9.382a16.3 16.3 0 0 0-6.017 2.935c.64.598 2.623 1.793 3.229 1.944a16.8 16.8 0 0 1 2.788-4.88"/><path fill="#fff" d="M40.428 26.017a5.65 5.65 0 0 1-.564 2.524 4.4 4.4 0 0 1-2.307 2.1 6.8 6.8 0 0 1-2.275.479 7.3 7.3 0 0 1-2.694-.293c-1.886-.607-3.015-1.883-3.303-3.872a6.3 6.3 0 0 1 .169-2.711 4.39 4.39 0 0 1 2.68-2.912 7.4 7.4 0 0 1 3.51-.432 6 6 0 0 1 1.979.48 4.45 4.45 0 0 1 2.71 3.599c.05.343.065.692.095 1.038m-3.704 0c-.03-.465-.045-.933-.097-1.396a4 4 0 0 0-.414-1.496c-.26-.52-.798-.84-1.377-.82a1.51 1.51 0 0 0-1.415.815 3.5 3.5 0 0 0-.368 1.174A11.6 11.6 0 0 0 33 27.346c.036.466.147.924.329 1.354a1.615 1.615 0 0 0 2.944.063q.151-.325.232-.675c.147-.681.22-1.375.22-2.071m-10.442-1.578c-.065-.179-.114-.322-.166-.464-.355-.959-1.07-1.446-2.057-1.552a2.7 2.7 0 0 0-1.127.06 1.4 1.4 0 0 0-.629.39c-.351.39-.313.83.133 1.103.26.154.542.271.834.348.614.17 1.242.292 1.86.458.716.174 1.4.46 2.027.85a2.48 2.48 0 0 1 1.162 1.937 2.94 2.94 0 0 1-.623 2.259 3.3 3.3 0 0 1-1.463.993 6 6 0 0 1-2.366.302 7.1 7.1 0 0 1-2.715-.704c-.037-.018-.079-.029-.142-.05l-.361.51h-1.277v-3.545q.331-.051.667-.027c.215-.006.43-.001.674-.001.045.117.084.226.128.333.445 1.063 1.191 1.776 2.343 1.998.382.088.78.08 1.158-.026.206-.06.4-.16.57-.292a.74.74 0 0 0 0-1.203 3.4 3.4 0 0 0-.914-.479c-.633-.221-1.285-.383-1.923-.587a13 13 0 0 1-1.312-.475c-.814-.363-1.41-.954-1.59-1.852-.29-1.434.311-2.681 1.62-3.375a4.3 4.3 0 0 1 1.808-.473 7 7 0 0 1 3.476.632c.04.019.08.032.151.06l.265-.445h1.344v3.309l-.758.008zm-8.052 5.049v1.333h-5.679v-1.333c.176 0 .347.003.516-.001q.178 0 .355-.03a.386.386 0 0 0 .344-.34q.04-.209.05-.419.005-2.707 0-5.416c-.001-.639-.152-.784-.789-.795-.15-.002-.301 0-.476 0V21.16h5.64a4.2 4.2 0 0 1 .018 1.305q-.117.014-.245.023c-.084.006-.173 0-.26.002-.58.021-.717.146-.717.72a949 949 0 0 0 0 5.546c.002.593.14.72.735.732.16.002.32 0 .508 0"/></svg>
